X: 995
T: Tall Timbers
C: Bill Monroe (B Part Barry Mitterhoff)
S: MandoZine TablEdit Archives 
Z: TablEdited by Mike Stangeland for MandoZine 
L: 1/8
Q: 618
M: 4/4
K: G
 z8 |: "G"g2 g"Fiddle Break - A"a ge dg | ed dg ed de | ge ga ge dg | ed dg ed de |
 ge ga ge dg | ed dg ed de | "D"BA GB AG EG |1 DE GB "G"AG ef :|2 DE GB "G"AG G2 |
|: "G"DE GA BA Bc | dc BA G2 GB | "C"cB cd c2 cd | ef gf ed cB | "G"DE GA BA Bc |
 dc BA G2 FG | DF AB cB cA | "G"G2 GA G4 :|

 "G"eg "Bill Monroe A pa"gg gg gg | ed dg ed dg |
 g2 gb ge dg | ed dg ed dg | g2 gb ge dg | ed dg ed d2 | "D"BA GB AG EG | DG GG "G"G2 eg |
 g2 gg ge dg | ed dg ed dg | g2 gb ge dg | ed dg ed dg | g2 gb ge dg | ed dg ed dA |
 "D"BA GB AG EG | DG GA "G"G4 |

 "G"DE "Barry Mitterhoff"DE GA Bc | d2 ^AB G4 | "C"[c3G3][cG] [c2G2] cc |
 cd ec dc GE | "G"DE DE GA Bc | d2 B^A =AG EG | "D"DE GB AG ED | "G"EG GG GG GG |
 DE DE GA Bc | dc z^A BG EG | "C"[A2D2] [c2E2] [c2E2] [c2E2] | cd ec dc GE | "G"DE DE GA Bc |
 dA B^A =AG EG | "D"DE GB AG ED | "G"[G2G,2] [GG,][GG,] [G4G,4] |

% ==========================================================================================================

